X:491
T:Slave,The. RH.491
T:Sloe,The,aka. RH.491
R:Country Dance
C:”by H.R.Bishop, 1816″
S:Rev.R.Harrison’s MS,c1815,Cumbria
O:England
A:Temple Sowerby,Cumbria
Z:vmp.Simon Wilson. Review PJH, 2008.
M:2/4
L:1/8
Q:1/4=110
K:D
F/G/|Ad de|fe dc|BA Bd|BA FF/G/|\
Ad de|fe dc|BA Bd|ed d:|!
|:A/A/|BA FA/A/|BA Fd/d/|ed cB|B2 Ad|\
dc ce|ed df|fe dc|e2 d:|

